!!!OTL: Ritter und Magd Ich gehe zu Strassburg wohl ueber die Brueck',
!!!ARE: Europa, Suedosteuropa, Jugoslavija, Slawonien
!!!YOR: 3, S. 62
!!    ????
!!!SCT: Q0055f
!!!YEM: Copyright 1995, estate of Helmut Schaffrath.
**kern
*ICvox
*Ivox
*M6/8
*k[b-]
*F:
{8c
=1
8c
8f
8f
8f
8g
8a
=2
8a
8g
8g
4g}
{8c
=3
8f
8a
8cc
8cc
8b-
8a
=4
4.g
4f}
{16cc
16cc
=5
4cc
8g
4a
8cc
=6
8cc
8b-
8a
4g}
{8c
=7
8f
8a
8cc
8cc
8b-
8a
=8
4.g
4f}
==
!!!AGN: Ballade, Betrug, Schwangerschaft, Tod, Selbstmord, Herr und Magd
!!!ONB: ESAC (Essen Associative Code) Database: BALLADE
!!!AMT: compound duple
!!!AIN: vox
!!!EED: Helmut Schaffrath
!!!EEV: 1.0
*-
